src/img/logo.svg

<svg width="45" height="25" viewBox="0 0 45 25" fill="none" xmlns="http://www.w3.org/2000/svg">
<path fill-rule="evenodd" clip-rule="evenodd" d="M14.5622 24.1479H19.5453L22.3618 21.2845L25.1782 24.1479H30.1419L22.352 16.2282L14.5622 24.1479ZM0 7.08275L8.39421 23.56L13.4754 18.6444L7.4009 9.02098L0 7.08275ZM44.8052 7.08021L36.4111 23.5575L31.3299 18.6419L37.4045 9.01843L44.8052 7.08021ZM22.355 0.714355L13.9801 12.2013L16.2152 15.9675L22.355 9.91466L28.4947 15.9675L30.7297 12.2013L22.355 0.714355Z" fill="white"/>
</svg>

<svg width="45" height="25" fill="none" xmlns="http://www.w3.org/2000/svg"><path fill-rule="evenodd" clip-rule="evenodd" d="M14.562 24.148h4.983l2.817-2.863 2.816 2.863h4.964l-7.79-7.92-7.79 7.92zM0 7.083L8.394 23.56l5.081-4.916-6.074-9.623L0 7.083zm44.805-.003l-8.394 16.477-5.081-4.915 6.075-9.624 7.4-1.938zM22.355.714L13.98 12.201l2.235 3.766 6.14-6.052 6.14 6.053L30.73 12.2 22.355.714z" fill="#fff"/></svg>
